www/assets/icons/remove_shopping_cart.svg

<svg width="24" height="24" viewBox="0 0 24 24" xmlns="http://www.w3.org/2000/svg" fill='currentColor'><g clip-path="url(#clip0_1616_2701)"><path d="M23.365 22.0948L1.90501 0.634766L0.63501 1.90477L5.02501 6.29477L7.23501 10.9548L5.88501 13.4048C5.72501 13.6848 5.63501 14.0148 5.63501 14.3648C5.63501 15.4648 6.53501 16.3648 7.63501 16.3648H15.095L16.475 17.7448C15.975 18.1048 15.645 18.6948 15.645 19.3648C15.645 20.4648 16.535 21.3648 17.635 21.3648C18.305 21.3648 18.895 21.0348 19.255 20.5248L22.095 23.3648L23.365 22.0948ZM8.05501 14.3648C7.91501 14.3648 7.80501 14.2548 7.80501 14.1148L7.83501 13.9948L8.73501 12.3648H11.095L13.095 14.3648H8.05501ZM16.185 12.3648C16.935 12.3648 17.595 11.9548 17.935 11.3348L21.515 4.84477C21.595 4.70477 21.635 4.53477 21.635 4.36477C21.635 3.81477 21.185 3.36477 20.635 3.36477H7.17501L16.185 12.3648ZM7.63501 17.3648C6.53501 17.3648 5.64501 18.2648 5.64501 19.3648C5.64501 20.4648 6.53501 21.3648 7.63501 21.3648C8.73501 21.3648 9.63501 20.4648 9.63501 19.3648C9.63501 18.2648 8.73501 17.3648 7.63501 17.3648Z"/></g><defs><clipPath id="clip0_1616_2701"><rect width="24" height="24"/></clipPath></defs></svg>

<svg xmlns="http://www.w3.org/2000/svg" width="24" height="24" viewBox="0 0 24 24" fill='currentColor'><g clip-path="url(#a)"><path d="M23.365 22.095 1.905.635l-1.27 1.27 4.39 4.39 2.21 4.66-1.35 2.45c-.16.28-.25.61-.25.96 0 1.1.9 2 2 2h7.46l1.38 1.38a1.997 1.997 0 0 0 1.16 3.62c.67 0 1.26-.33 1.62-.84l2.84 2.84zm-15.31-7.73c-.14 0-.25-.11-.25-.25l.03-.12.9-1.63h2.36l2 2zm8.13-2c.75 0 1.41-.41 1.75-1.03l3.58-6.49a1.003 1.003 0 0 0-.88-1.48H7.175zm-8.55 5c-1.1 0-1.99.9-1.99 2s.89 2 1.99 2 2-.9 2-2-.9-2-2-2"/></g><defs><clipPath id="a"><path d="M0 0h24v24H0z"/></clipPath></defs></svg>
